**kern	**silbe	**harmony	**phrase	**leadinstrument	**rhyme	**timestamp	**harte
*ICvox	*	*M4/4	*	*	*	*	*M4/4
*VRlead	*	*	*	*	*	*	*
*Hstimme	*	*	*	*	*	*	*
*B-:	*	*B-:	*	*	*	*	*B-:
*clefG2	*	*	*	*	*	*	*
=1	=1	=1	=1	=1	=1	=1	=1
r;	.	1r;	.	r	.	0	N.C.
=2	=2	=2	=2	=2	=2	=2	=2
*>Letter>A2	*>Letter>A2	*>Letter>A2	*>Letter>A2	*>Letter>A2	*>Letter>A2	*>Letter>A2	*>Letter>A2
*>Label>Intro	*>Label>Intro	*>Label>Intro	*>Label>Intro	*>Label>Intro	*>Label>Intro	*>Label>Intro	*>Label>Intro
*M4/4	*	*	*	*	*	*	*
1r	.	1B-MM	newline	synthesizer	.	0.232	B-:maj7
=3	=3	=3	=3	=3	=3	=3	=3
1r	.	1G-MM	.	synthesizer	.	3.026	G-:maj7
=4	=4	=4	=4	=4	=4	=4	=4
1r	.	1E-mm	.	synthesizer	.	5.821	E-:min9
=5	=5	=5	=5	=5	=5	=5	=5
1r	.	2A-Mm	.	synthesizer	.	8.615	A-:11
.	.	2FMm	.	synthesizer	.	10.012	F:7
=6	=6	=6	=6	=6	=6	=6	=6
1r	.	1B-MM	newline	synthesizer	.	11.409	B-:maj7
=7	=7	=7	=7	=7	=7	=7	=7
1r	.	1G-MM	.	synthesizer	.	14.158	G-:maj7
=8	=8	=8	=8	=8	=8	=8	=8
1r	.	1E-mm	.	synthesizer	.	16.906	E-:min9
=9	=9	=9	=9	=9	=9	=9	=9
2r	.	2.A-Mm	.	synthesizer	.	19.654	A-:11
4r	.	.	.	.	.	.	.
4f	With	4FMm	.	synthesizer	.	21.716	F:7
=10	=10	=10	=10	=10	=10	=10	=10
*>Letter>B	*>Letter>B	*>Letter>B	*>Letter>B	*>Letter>B	*>Letter>B	*>Letter>B	*>Letter>B
*>Label>Verse	*>Label>Verse	*>Label>Verse	*>Label>Verse	*>Label>Verse	*>Label>Verse	*>Label>Verse	*>Label>Verse
4d	all	1B-MM	newline	voice	.	22.403	B-:maj7
8e-	my	.	.	.	.	.	.
4f	heart	.	.	.	.	.	.
4F	I	.	.	.	.	.	.
[8G-	love	.	.	.	.	.	.
=11	=11	=11	=11	=11	=11	=11	=11
8G-]	_	1E-mm	.	voice	.	25.197	E-:min9
4f	you	.	.	.	.	.	.
8e-	ba-	.	.	.	.	.	.
4d-	-by.	.	.	.	A	.	.
4r	.	.	.	.	.	.	.
=12	=12	=12	=12	=12	=12	=12	=12
8d-	Stay	1G-MM	.	voice	.	27.991	G-:maj7
4d-	with	.	.	.	.	.	.
4e-	me	.	.	.	A	.	.
8r	.	.	.	.	.	.	.
8r	.	.	.	.	.	.	.
8G-	and	.	.	.	.	.	.
=13	=13	=13	=13	=13	=13	=13	=13
8F	you	2Fmm	.	voice	.	30.785	F:min7
4e-	will	.	.	.	.	.	.
32e-	see.	.	.	.	A	.	.
32d	_	.	.	.	.	.	.
8.d-	_	.	.	.	.	.	.
.	.	4A-Mm	.	voice	.	32.182	A-:11
8d-	My	.	.	.	.	.	.
16e-	_	4FMm	.	voice	.	32.88	F:7
16e	_	.	.	.	.	.	.
[8f	arms	.	.	.	.	.	.
=14	=14	=14	=14	=14	=14	=14	=14
8f]	_	1B-MM	newline	voice	.	33.579	B-:maj7
8r	.	.	.	.	.	.	.
4r	.	.	.	.	.	.	.
8r	.	.	.	.	.	.	.
4F	will	.	.	.	.	.	.
[8G-	hold	.	.	.	.	.	.
=15	=15	=15	=15	=15	=15	=15	=15
8G-]	_	1E-mm	.	voice	.	36.384	E-:min9
4f	you	.	.	.	.	.	.
8e-	ba-	.	.	.	.	.	.
4d-	-by.	.	.	.	A	.	.
4r	.	.	.	.	.	.	.
=16	=16	=16	=16	=16	=16	=16	=16
8d-	Ne-	1G-MM	.	voice	.	39.188	G-:maj7
4d-	-ver	.	.	.	.	.	.
4e-	leave|	.	.	.	A	.	.
8r	.	.	.	.	.	.	.
8r	.	.	.	.	.	.	.
8G-	'cause	.	.	.	.	.	.
=17	=17	=17	=17	=17	=17	=17	=17
8F	I	2.A-Mm	.	voice	.	41.993	A-:11
4e-	be-	.	.	.	.	.	.
16e-	-lieve	.	.	.	A	.	.
8.d-	_	.	.	.	.	.	.
8d-	I'm	.	.	.	.	.	.
8e-	in	4FMm	.	voice	.	44.097	F:7
[8f	love.	.	.	.	.	.	.
=18	=18	=18	=18	=18	=18	=18	=18
*>Letter>A	*>Letter>A	*>Letter>A	*>Letter>A	*>Letter>A	*>Letter>A	*>Letter>A	*>Letter>A
*>Label>Chorus	*>Label>Chorus	*>Label>Chorus	*>Label>Chorus	*>Label>Chorus	*>Label>Chorus	*>Label>Chorus	*>Label>Chorus
4.f]	_	1B-MM	newline	voice	.	44.798	B-:maj7
8r	.	.	.	.	.	.	.
8r	.	.	.	.	.	.	.
8b-	Sweet	.	.	.	.	.	.
8f	_	.	.	.	.	.	.
[8b-	love.	.	.	.	.	.	.
=19	=19	=19	=19	=19	=19	=19	=19
4.b-]	_	1E-mm	.	voice	.	47.515	E-:min9
8r	.	.	.	.	.	.	.
8r	.	.	.	.	.	.	.
8b-	hear	.	.	.	.	.	.
8cc	my	.	.	.	.	.	.
[8dd-	call-	.	.	.	.	.	.
=20	=20	=20	=20	=20	=20	=20	=20
8dd-]	_	1G-MM	.	voice	.	50.233	G-:maj7
8ee-	-in'	.	.	.	.	.	.
8cc	out	.	.	.	.	.	.
8dd-	your	.	.	.	.	.	.
8b-	name.	.	.	.	B	.	.
16a-	_	.	.	.	.	.	.
8f	_	.	.	.	.	.	.
16r	.	.	.	.	.	.	.
8r	.	.	.	.	.	.	.
=21	=21	=21	=21	=21	=21	=21	=21
8a	I	2A-Mm	.	voice	.	52.95	A-:11
8f	feel	.	.	.	.	.	.
8d-	no	.	.	.	.	.	.
16e-	shame.	.	.	.	B	.	.
16B-	_	.	.	.	.	.	.
8r	.	2FMm	.	voice	.	54.309	F:7
8d-	I'm	.	.	.	.	.	.
8e-	in	.	.	.	.	.	.
[8f	love.	.	.	.	.	.	.
=22	=22	=22	=22	=22	=22	=22	=22
4.f]	_	1B-MM	newline	voice	.	55.668	B-:maj7
8r	.	.	.	.	.	.	.
8r	.	.	.	.	.	.	.
8b-	Sweet	.	.	.	.	.	.
8f	_	.	.	.	.	.	.
[8b-	love.	.	.	.	.	.	.
=23	=23	=23	=23	=23	=23	=23	=23
4.b-]	_	1E-mm	.	voice	.	58.376	E-:min9
8r	.	.	.	.	.	.	.
8r	.	.	.	.	.	.	.
8b-	Don't	.	.	.	.	.	.
8cc	you	.	.	.	.	.	.
[8dd-	e-	.	.	.	.	.	.
=24	=24	=24	=24	=24	=24	=24	=24
8dd-]	_	1G-MM	.	voice	.	61.085	G-:maj7
16dd	-ver	.	.	.	.	.	.
16ee-	_	.	.	.	.	.	.
8cc	go	.	.	.	.	.	.
8dd-	a-	.	.	.	.	.	.
8b-	-way.	.	.	.	B	.	.
16a-	_	.	.	.	.	.	.
16f	_	.	.	.	.	.	.
8r	.	.	.	.	.	.	.
16f	It-	.	.	.	.	.	.
16g-	-'ll	.	.	.	.	.	.
=25	=25	=25	=25	=25	=25	=25	=25
8a-	al-	2A-Mm	.	voice	.	63.793	A-:11
8g-	-ways	.	.	.	.	.	.
8f	be	.	.	.	.	.	.
8e-	this	.	.	.	.	.	.
16e-	way	2FMm	.	voice	B	65.148	F:7
8.f	_	.	.	.	.	.	.
8f	Oh	.	.	.	.	.	.
8e-	_	.	.	.	.	.	.
=26	=26	=26	=26	=26	=26	=26	=26
*>Letter>B	*>Letter>B	*>Letter>B	*>Letter>B	*>Letter>B	*>Letter>B	*>Letter>B	*>Letter>B
*>Label>Verse	*>Label>Verse	*>Label>Verse	*>Label>Verse	*>Label>Verse	*>Label>Verse	*>Label>Verse	*>Label>Verse
4d	heart	1B-MM	newline	voice	.	66.502	B-:maj7
8e-	has	.	.	.	.	.	.
8f	called	.	.	.	.	.	.
8r	.	.	.	.	.	.	.
4F	me	.	.	.	A	.	.
[8G-	clo-	.	.	.	.	.	.
=27	=27	=27	=27	=27	=27	=27	=27
8G-]	_	1E-mm	.	voice	.	69.292	E-:min9
4f	-ser	.	.	.	.	.	.
8e-	to	.	.	.	.	.	.
4d-	you.	.	.	.	.	.	.
4r	.	.	.	.	.	.	.
=28	=28	=28	=28	=28	=28	=28	=28
8d-	I	1G-MM	.	voice	.	72.081	G-:maj7
4d-	will	.	.	.	.	.	.
4e-	be	.	.	.	A	.	.
8r	.	.	.	.	.	.	.
8r	.	.	.	.	.	.	.
8G-	all	.	.	.	.	.	.
=29	=29	=29	=29	=29	=29	=29	=29
8F	that	2Fmm	.	voice	.	74.871	F:min7
4e-	you	.	.	.	.	.	.
16e-	need.	.	.	.	A	.	.
8.d-	_	.	.	.	.	.	.
.	.	4A-Mm	.	voice	.	76.265	A-:11
4e-	Just	.	.	.	.	.	.
.	.	4FMm	.	voice	.	76.963	F:7
[8f	trust	.	.	.	.	.	.
=30	=30	=30	=30	=30	=30	=30	=30
4.f]	_	1B-MM	newline	voice	.	77.66	B-:maj7
8r	.	.	.	.	.	.	.
8r	.	.	.	.	.	.	.
4F	in	.	.	.	.	.	.
[8G-	what	.	.	.	.	.	.
=31	=31	=31	=31	=31	=31	=31	=31
8G-]	_	1E-mm	.	voice	.	80.428	E-:min9
4f	we're	.	.	.	.	.	.
8e-	fee-	.	.	.	A	.	.
4d-	-ling.	.	.	.	A	.	.
4r	.	.	.	.	.	.	.
=32	=32	=32	=32	=32	=32	=32	=32
8d-	Ne-	1G-MM	.	voice	.	83.195	G-:maj7
4d-	-ver	.	.	.	.	.	.
4.e-	leave|	.	.	.	A	.	.
4f	'cause	.	.	.	.	.	.
=33	=33	=33	=33	=33	=33	=33	=33
8r	.	2.A-Mm	.	voice	.	85.963	A-:11
16a-	ba-	.	.	.	.	.	.
16f	-by	.	.	.	A	.	.
16e-	I	.	.	.	.	.	.
16d-	be-	.	.	.	.	.	.
32e-	-lieve	.	.	.	A	.	.
32d	_	.	.	.	.	.	.
8.d-	_	.	.	.	.	.	.
8d-	In	.	.	.	.	.	.
8e-	this	4FMm	.	voice	.	88.039	F:7
[8f	love.	.	.	.	.	.	.
=34	=34	=34	=34	=34	=34	=34	=34
*>Letter>A	*>Letter>A	*>Letter>A	*>Letter>A	*>Letter>A	*>Letter>A	*>Letter>A	*>Letter>A
*>Label>Chorus	*>Label>Chorus	*>Label>Chorus	*>Label>Chorus	*>Label>Chorus	*>Label>Chorus	*>Label>Chorus	*>Label>Chorus
4.f]	_	1B-MM	newline	voice	.	88.73	B-:maj7
8r	.	.	.	.	.	.	.
8r	.	.	.	.	.	.	.
8b-	Sweet	.	.	.	.	.	.
8f	_	.	.	.	.	.	.
[8b-	love.	.	.	.	.	.	.
=35	=35	=35	=35	=35	=35	=35	=35
4.b-]	_	1E-mm	.	voice	.	91.431	E-:min9
8r	.	.	.	.	.	.	.
8r	.	.	.	.	.	.	.
8b-	hear	.	.	.	.	.	.
8cc	my	.	.	.	.	.	.
[8dd-	call-	.	.	.	.	.	.
=36	=36	=36	=36	=36	=36	=36	=36
8dd-]	_	1G-MM	.	voice	.	94.132	G-:maj7
8ee-	-in'	.	.	.	.	.	.
8cc	out	.	.	.	.	.	.
8dd-	your	.	.	.	.	.	.
8b-	name.	.	.	.	B	.	.
16a-	_	.	.	.	.	.	.
8f	_	.	.	.	.	.	.
16r	.	.	.	.	.	.	.
8r	.	.	.	.	.	.	.
=37	=37	=37	=37	=37	=37	=37	=37
8a	I	2A-Mm	.	voice	.	96.833	A-:11
8f	feel	.	.	.	.	.	.
8d-	no	.	.	.	.	.	.
16e-	shame.	.	.	.	B	.	.
8.B-	_	.	.	.	.	.	.
.	.	2FMm	.	voice	.	98.184	F:7
8d-	I'm	.	.	.	.	.	.
8e-	in	.	.	.	.	.	.
[8f	love.	.	.	.	.	.	.
=38	=38	=38	=38	=38	=38	=38	=38
4.f]	_	1B-MM	newline	voice	.	99.534	B-:maj7
8r	.	.	.	.	.	.	.
8r	.	.	.	.	.	.	.
8b-	Sweet	.	.	.	.	.	.
8f	_	.	.	.	.	.	.
[8b-	love.	.	.	.	.	.	.
=39	=39	=39	=39	=39	=39	=39	=39
4.b-]	_	1E-mm	.	voice	.	102.226	E-:min9
8r	.	.	.	.	.	.	.
8r	.	.	.	.	.	.	.
8b-	Don't	.	.	.	.	.	.
8cc	you	.	.	.	.	.	.
[8dd-	e-	.	.	.	.	.	.
=40	=40	=40	=40	=40	=40	=40	=40
8dd-]	_	1G-MM	.	voice	.	104.918	G-:maj7
16dd	-ver	.	.	.	.	.	.
16ee-	_	.	.	.	.	.	.
8cc	go	.	.	.	.	.	.
8dd-	a-	.	.	.	.	.	.
8b-	-way.	.	.	.	B	.	.
16a-	_	.	.	.	.	.	.
16f	_	.	.	.	.	.	.
8r	.	.	.	.	.	.	.
16f	It-	.	.	.	.	.	.
16g-	-'ll	.	.	.	.	.	.
=41	=41	=41	=41	=41	=41	=41	=41
8a-	al-	2A-Mm	.	voice	.	107.611	A-:11
8g-	-ways	.	.	.	.	.	.
8f	be	.	.	.	.	.	.
8e-	this	.	.	.	.	.	.
16e-	way.	2FMm	.	voice	B	108.957	F:7
8.f	_	.	.	.	.	.	.
8f	There's	.	.	.	.	.	.
24e-	_	.	.	.	.	.	.
24d	_	.	.	.	.	.	.
24B-	_	.	.	.	.	.	.
=42	=42	=42	=42	=42	=42	=42	=42
*>Letter>C	*>Letter>C	*>Letter>C	*>Letter>C	*>Letter>C	*>Letter>C	*>Letter>C	*>Letter>C
*>Label>Bridge	*>Label>Bridge	*>Label>Bridge	*>Label>Bridge	*>Label>Bridge	*>Label>Bridge	*>Label>Bridge	*>Label>Bridge
8r	.	1E-mm	newline	voice	.	110.303	E-:min7
8B-	strong-	.	.	.	.	.	.
8c	-er	.	.	.	.	.	.
8d-	love	.	.	.	.	.	.
8r	.	.	.	.	.	.	.
8a-	in	.	.	.	.	.	.
8f	this	.	.	.	.	.	.
8f	world.	.	.	.	C	.	.
=43	=43	=43	=43	=43	=43	=43	=43
[4e-	_	2B-M	.	voice	.	113.029	B-:sus4(b7)
16e-]	_	.	.	.	.	.	.
16d-	_	.	.	.	.	.	.
16e	_	.	.	.	.	.	.
16f	_	.	.	.	.	.	.
8r	.	2B-Mm	.	voice	.	114.392	B-:7
8f	Oh	.	.	.	.	.	.
16e-	ba-	.	.	.	.	.	.
16d-	-by	.	.	.	A	.	.
8B-	no.	.	.	.	.	.	.
=44	=44	=44	=44	=44	=44	=44	=44
8r	.	1E-mm	.	voice	.	115.755	E-:min7
8B-	You're	.	.	.	.	.	.
8c	my	.	.	.	.	.	.
8d-	man.	.	.	.	.	.	.
8r	.	.	.	.	.	.	.
8d-	I'm	.	.	.	.	.	.
8f	your	.	.	.	.	.	.
[8e-	girl.	.	.	.	C	.	.
=45	=45	=45	=45	=45	=45	=45	=45
4e-_	_	2B-M	.	voice	.	118.482	B-:sus4(b7)
16e-]	_	.	.	.	.	.	.
16d-	_	.	.	.	.	.	.
16e	_	.	.	.	.	.	.
16f	_	.	.	.	.	.	.
8r	.	2B-Mm	.	voice	.	119.845	B-:7
8f	I'll	.	.	.	.	.	.
16e-	ne-	.	.	.	.	.	.
16d-	-ver	.	.	.	.	.	.
8B-	go.	.	.	.	.	.	.
=46	=46	=46	=46	=46	=46	=46	=46
8r	.	1E-mm	newline	voice	.	121.208	E-:min7
8B-	Wait	.	.	.	.	.	.
8c	and	.	.	.	.	.	.
8d-	see.	.	.	.	A	.	.
8r	.	.	.	.	.	.	.
8a-	can't	.	.	.	.	.	.
8e-	be	.	.	.	A	.	.
[8e-	wrong.	.	.	.	D	.	.
=47	=47	=47	=47	=47	=47	=47	=47
4e-_	_	2B-M	.	voice	.	123.97	B-:sus4(b7)
16e-]	_	.	.	.	.	.	.
16d-	_	.	.	.	.	.	.
16e	_	.	.	.	.	.	.
16f	_	.	.	.	.	.	.
8r	.	2B-Mm	.	voice	.	125.351	B-:7
8e-	Don't	.	.	.	.	.	.
8f	you	.	.	.	.	.	.
[8g-	know	.	.	.	.	.	.
=48	=48	=48	=48	=48	=48	=48	=48
8g-]	_	2C-MM	.	voice	.	126.732	C-:maj7
8a-	this	.	.	.	.	.	.
8f	is	.	.	.	.	.	.
16f	where	.	.	.	.	.	.
16e-	_	.	.	.	.	.	.
8d-	_	2B-mm	.	voice	.	128.113	B-:min7
8e-	you	.	.	.	.	.	.
16f	be-	.	.	.	.	.	.
16e-	_	.	.	.	.	.	.
[8f	-long?.	.	.	.	D	.	.
=49	=49	=49	=49	=49	=49	=49	=49
4f]	_	1FMm	.	voice	.	129.493	F:11
8r	.	.	.	.	.	.	.
4g	Oh	.	.	.	.	.	.
8f	_	.	.	.	.	.	.
8f	my	.	.	.	.	.	.
[8b-	sweet-	.	.	.	.	.	.
=50	=50	=50	=50	=50	=50	=50	=50
*>Letter>B	*>Letter>B	*>Letter>B	*>Letter>B	*>Letter>B	*>Letter>B	*>Letter>B	*>Letter>B
*>Label>Verse	*>Label>Verse	*>Label>Verse	*>Label>Verse	*>Label>Verse	*>Label>Verse	*>Label>Verse	*>Label>Verse
8b-]	_	1B-MM	newline	voice	.	132.255	B-:maj7
16f	_	.	.	.	.	.	.
16r	.	.	.	.	.	.	.
8f	-test	.	.	.	.	.	.
8f	dream.	.	.	.	A	.	.
8r	.	.	.	.	.	.	.
8b-	How	.	.	.	.	.	.
8f	_	.	.	.	.	.	.
8b-	love-	.	.	.	.	.	.
=51	=51	=51	=51	=51	=51	=51	=51
8f	_	1E-mm	.	voice	.	135.006	E-:min9
8a-	-ly	.	.	.	A	.	.
8f	_	.	.	.	.	.	.
16e-	ba-	.	.	.	.	.	.
16d-	_	.	.	.	.	.	.
4d-	-by.	.	.	.	A	.	.
4r	.	.	.	.	.	.	.
=52	=52	=52	=52	=52	=52	=52	=52
8d-	Stay	1G-MM	.	voice	.	137.758	G-:maj7
4d-	right	.	.	.	.	.	.
4.e-	here.	.	.	.	.	.	.
4r	.	.	.	.	.	.	.
=53	=53	=53	=53	=53	=53	=53	=53
8r	.	2Fmm	.	voice	.	140.509	F:min7
8a-	Ne-	.	.	.	.	.	.
8f	-ver	.	.	.	.	.	.
4d-	fear.	.	.	.	A	.	.
.	.	4A-Mm	.	voice	.	141.884	A-:11
8d-	I	.	.	.	.	.	.
8e-	will	4FMm	.	voice	.	142.572	F:7
[8f	be	.	.	.	.	.	.
=54	=54	=54	=54	=54	=54	=54	=54
4.f]	_	1B-MM	newline	voice	.	143.26	B-:maj7
8r	.	.	.	.	.	.	.
8r	.	.	.	.	.	.	.
4F	all	.	.	.	.	.	.
[8G-	that	.	.	.	.	.	.
=55	=55	=55	=55	=55	=55	=55	=55
8G-]	_	1E-mm	.	voice	.	145.979	E-:min9
4f	you	.	.	.	.	.	.
8a-	need.	.	.	.	A	.	.
16f	_	.	.	.	.	.	.
16e-	_	.	.	.	.	.	.
4.d-	_	.	.	.	.	.	.
=56	=56	=56	=56	=56	=56	=56	=56
8r	.	1G-MM	.	voice	.	148.699	G-:maj7
8d-	Ne-	.	.	.	.	.	.
8d-	-ver	.	.	.	.	.	.
4.e-	leave|	.	.	.	A	.	.
4f	'cause	.	.	.	.	.	.
=57	=57	=57	=57	=57	=57	=57	=57
8r	.	2.A-Mm	.	voice	.	151.418	A-:11
16a-	ba-	.	.	.	.	.	.
16f	-by	.	.	.	A	.	.
16e-	I	.	.	.	.	.	.
16d-	be-	.	.	.	.	.	.
32e-	-lieve	.	.	.	A	.	.
32d	_	.	.	.	.	.	.
8.d-	_	.	.	.	.	.	.
8d-	In	.	.	.	.	.	.
8e-	this	4FMm	.	voice	.	153.457	F:7
[8f	love.	.	.	.	.	.	.
=58	=58	=58	=58	=58	=58	=58	=58
*>Letter>A	*>Letter>A	*>Letter>A	*>Letter>A	*>Letter>A	*>Letter>A	*>Letter>A	*>Letter>A
*>Label>Chorus	*>Label>Chorus	*>Label>Chorus	*>Label>Chorus	*>Label>Chorus	*>Label>Chorus	*>Label>Chorus	*>Label>Chorus
4.f]	_	1B-MM	newline	voice	.	154.137	B-:maj7
8r	.	.	.	.	.	.	.
8r	.	.	.	.	.	.	.
8b-	Sweet	.	.	.	.	.	.
8f	_	.	.	.	.	.	.
[8b-	love.	.	.	.	.	.	.
=59	=59	=59	=59	=59	=59	=59	=59
4.b-]	_	1E-mm	.	voice	.	156.859	E-:min9
8r	.	.	.	.	.	.	.
8r	.	.	.	.	.	.	.
8b-	hear	.	.	.	.	.	.
8cc	my	.	.	.	.	.	.
[8dd-	call-	.	.	.	.	.	.
=60	=60	=60	=60	=60	=60	=60	=60
8dd-]	_	1G-MM	.	voice	.	159.58	G-:maj7
8ee-	-in'	.	.	.	.	.	.
8cc	out	.	.	.	.	.	.
8dd-	your	.	.	.	.	.	.
8b-	name.	.	.	.	B	.	.
16a-	_	.	.	.	.	.	.
8.f	_	.	.	.	.	.	.
8r	.	.	.	.	.	.	.
=61	=61	=61	=61	=61	=61	=61	=61
8a	I	2A-Mm	.	voice	.	162.302	A-:11
8f	feel	.	.	.	.	.	.
8d-	no	.	.	.	.	.	.
16e-	shame.	.	.	.	B	.	.
8.B-	_	.	.	.	.	.	.
.	.	2FMm	.	voice	.	163.662	F:7
8d-	I'm	.	.	.	.	.	.
8e-	in	.	.	.	.	.	.
[8f	love.	.	.	.	.	.	.
=62	=62	=62	=62	=62	=62	=62	=62
4.f]	_	1B-MM	newline	voice	.	165.023	B-:maj7
8r	.	.	.	.	.	.	.
8r	.	.	.	.	.	.	.
8b-	Sweet	.	.	.	.	.	.
8f	_	.	.	.	.	.	.
[8b-	love.	.	.	.	.	.	.
=63	=63	=63	=63	=63	=63	=63	=63
4.b-]	_	1E-mm	.	voice	.	167.719	E-:min9
8r	.	.	.	.	.	.	.
8r	.	.	.	.	.	.	.
8b-	Don't	.	.	.	.	.	.
8cc	you	.	.	.	.	.	.
[8dd-	e-	.	.	.	.	.	.
=64	=64	=64	=64	=64	=64	=64	=64
8dd-]	_	1G-MM	.	voice	.	170.415	G-:maj7
16dd	-ver	.	.	.	.	.	.
16ee-	_	.	.	.	.	.	.
8cc	go	.	.	.	.	.	.
8dd-	a-	.	.	.	.	.	.
8b-	-way.	.	.	.	B	.	.
16a-	_	.	.	.	.	.	.
16f	_	.	.	.	.	.	.
8r	.	.	.	.	.	.	.
16f	It-	.	.	.	.	.	.
16g-	-'ll	.	.	.	.	.	.
=65	=65	=65	=65	=65	=65	=65	=65
8a-	al-	2A-Mm	.	voice	.	173.11	A-:11
8g-	-ways	.	.	.	.	.	.
8f	be	.	.	.	.	.	.
8e-	this	.	.	.	.	.	.
16e-	way.	2FMm	.	voice	B	174.458	F:7
8.f	_	.	.	.	.	.	.
[4b-	_	.	.	.	.	.	.
=66	=66	=66	=66	=66	=66	=66	=66
*>Letter>A2	*>Letter>A2	*>Letter>A2	*>Letter>A2	*>Letter>A2	*>Letter>A2	*>Letter>A2	*>Letter>A2
*>Label>Solo	*>Label>Solo	*>Label>Solo	*>Label>Solo	*>Label>Solo	*>Label>Solo	*>Label>Solo	*>Label>Solo
4b-]	_	1B-MM	newline	voice	.	175.806	B-:maj7
8f	_	.	.	.	.	.	.
[4b-	_	.	.	.	.	.	.
16b-]	_	.	.	.	.	.	.
8f	_	.	.	.	.	.	.
16r	.	.	.	.	.	.	.
8r	.	.	.	.	.	.	.
=67	=67	=67	=67	=67	=67	=67	=67
1r	.	1E-mm	.	voice	.	178.484	E-:min9
=68	=68	=68	=68	=68	=68	=68	=68
8.r	.	1G-MM	.	voice	.	181.162	G-:maj7
16b-	Oh	.	.	.	.	.	.
8ff	_	.	.	.	.	.	.
16ee-	_	.	.	.	.	.	.
16dd-	_	.	.	.	.	.	.
8ee-	no	.	.	.	.	.	.
8b-	_	.	.	.	.	.	.
4dd-	Oh	.	.	.	.	.	.
=69	=69	=69	=69	=69	=69	=69	=69
4b-	no	2A-Mm	.	voice	.	183.84	A-:11
4a-	Oh	.	.	.	.	.	.
8f	no	2FMm	.	voice	.	185.178	F:7
16e-	_	.	.	.	.	.	.
16d-	_	.	.	.	.	.	.
4B-	no	.	.	.	.	.	.
=70	=70	=70	=70	=70	=70	=70	=70
8B-	no.	1B-MM	newline	voice	.	186.517	B-:maj7
8r	.	.	.	.	.	.	.
4r	.	.	.	.	.	.	.
8r	.	.	.	.	.	.	.
8B-	Sweet	.	.	.	.	.	.
8d-	_	.	.	.	.	.	.
8e	love.	.	.	.	.	.	.
=71	=71	=71	=71	=71	=71	=71	=71
8e-	_	1E-mm	.	voice	.	189.205	E-:min9
16d-	_	.	.	.	.	.	.
16B-	_	.	.	.	.	.	.
4r	.	.	.	.	.	.	.
4r	.	.	.	.	.	.	.
8r	.	.	.	.	.	.	.
[8a	Ah	.	.	.	.	.	.
=72	=72	=72	=72	=72	=72	=72	=72
4.a]	_	1G-MM	.	voice	.	191.892	G-:maj7
8f	ooh	.	.	.	.	.	.
4e-	_	.	.	.	.	.	.
16d-	_	.	.	.	.	.	.
16B-	_	.	.	.	.	.	.
16d-	ooh.	.	.	.	.	.	.
16e-	_	.	.	.	.	.	.
=73	=73	=73	=73	=73	=73	=73	=73
4.d-	_	2A-Mm	.	voice	.	194.579	A-:11
4B-	_	.	.	.	.	.	.
.	.	2FMm	.	voice	.	195.922	F:7
8r	.	.	.	.	.	.	.
4r	.	.	.	.	.	.	.
=74	=74	=74	=74	=74	=74	=74	=74
8r	.	1B-MM	newline	voice	.	197.266	B-:maj7
4f	So	.	.	.	.	.	.
4b-	sweet.	.	.	.	.	.	.
4f	_	.	.	.	.	.	.
8r	.	.	.	.	.	.	.
=75	=75	=75	=75	=75	=75	=75	=75
8r	.	1E-mm	.	voice	.	199.943	E-:min9
4f	So	.	.	.	.	.	.
8dd-	sweet.	.	.	.	.	.	.
16cc	_	.	.	.	.	.	.
16b-	_	.	.	.	.	.	.
4dd-	_	.	.	.	.	.	.
8r	.	.	.	.	.	.	.
=76	=76	=76	=76	=76	=76	=76	=76
8r	.	1G-MM	.	voice	.	202.619	G-:maj7
4b-	So	.	.	.	.	.	.
2dd-	sweet	.	.	.	.	.	.
[8ee-	_	.	.	.	.	.	.
=77	=77	=77	=77	=77	=77	=77	=77
4.ee-]	_	2A-Mm	.	voice	.	205.296	A-:11
2ff	ah	.	.	.	.	.	.
.	.	2FMm	.	voice	.	206.634	F:7
8dd	_	.	.	.	.	.	.
=78	=78	=78	=78	=78	=78	=78	=78
8b-	_	1B-MM	newline	voice	.	207.972	B-:maj7
8b-	Love.	.	.	.	.	.	.
4r	.	.	.	.	.	.	.
8r	.	.	.	.	.	.	.
4b-	Oh	.	.	.	.	.	.
8dd-	_	.	.	.	.	.	.
=79	=79	=79	=79	=79	=79	=79	=79
8b-	_	1E-mm	.	voice	.	210.627	E-:min9
4.b-	love.	.	.	.	.	.	.
2r	.	.	.	.	.	.	.
=80	=80	=80	=80	=80	=80	=80	=80
1r	.	1G-MM	.	voice	.	213.281	G-:maj7
=81	=81	=81	=81	=81	=81	=81	=81
8r	.	2A-Mm	.	voice	.	215.936	A-:11
16ee-	Ah	.	.	.	.	.	.
16ff	_	.	.	.	.	.	.
4ee-	_	.	.	.	.	.	.
8dd-	ba-	2FMm	.	voice	.	217.263	F:7
8b-	-by	.	.	.	.	.	.
4b-	no.	.	.	.	.	.	.
=82	=82	=82	=82	=82	=82	=82	=82
8r	.	1B-MM	newline	voice	.	218.59	B-:maj7
8dd	Sweet	.	.	.	.	.	.
8r	.	.	.	.	.	.	.
8b-	turn	.	.	.	.	.	.
16b-	love.	.	.	.	.	.	.
16a-	_	.	.	.	.	.	.
8f	_	.	.	.	.	.	.
8r	.	.	.	.	.	.	.
16b-	Oh	.	.	.	.	.	.
16b-	I	.	.	.	.	.	.
=83	=83	=83	=83	=83	=83	=83	=83
8r	.	1E-mm	.	voice	.	221.251	E-:min9
8dd-	Sweet	.	.	.	.	.	.
8b-	turn	.	.	.	.	.	.
16b-	love.	.	.	.	.	.	.
16a-	_	.	.	.	.	.	.
4f	_	.	.	.	.	.	.
4r	.	.	.	.	.	.	.
=84	=84	=84	=84	=84	=84	=84	=84
4r	.	1G-MM	.	voice	.	223.912	G-:maj7
8ff	Oh	.	.	.	.	.	.
8dd-	_	.	.	.	.	.	.
8ee-	no	.	.	.	.	.	.
8b-	_	.	.	.	.	.	.
4dd-	Oh	.	.	.	.	.	.
=85	=85	=85	=85	=85	=85	=85	=85
4ee-	no	2A-Mm	.	voice	.	226.573	A-:11
8dd-	no	.	.	.	.	.	.
4b-	no	.	.	.	.	.	.
.	.	2FMm	.	voice	.	227.904	F:7
8b-	no	.	.	.	.	.	.
4b-	no	.	.	.	.	.	.
=86	=86	=86	=86	=86	=86	=86	=86
4b-	no.	1B-MM	newline	voice	.	229.234	B-:maj7
4r	.	.	.	.	.	.	.
8r	.	.	.	.	.	.	.
16b-	Su	.	.	.	.	.	.
16b-	la	.	.	.	.	.	.
16dd-	ba-	.	.	.	.	.	.
16dd-	-da	.	.	.	.	.	.
8ee-	no.	.	.	.	.	.	.
=87	=87	=87	=87	=87	=87	=87	=87
8b-	_	1E-mm	.	voice	.	231.899	E-:min9
8r	.	.	.	.	.	.	.
4r	.	.	.	.	.	.	.
2r	.	.	.	.	.	.	.
=88	=88	=88	=88	=88	=88	=88	=88
2r	.	1G-MM	.	voice	.	234.564	G-:maj7
8r	.	.	.	.	.	.	.
8ff	Dont'	.	.	.	.	.	.
8ee-	any-	.	.	.	.	.	.
8ee-	-bo-	.	.	.	.	.	.
=89	=89	=89	=89	=89	=89	=89	=89
8ee-	-dy	2A-Mm	.	voice	.	237.229	A-:11
8ee-	know	.	.	.	.	.	.
4dd-	_	.	.	.	.	.	.
8r	.	2FMm	.	voice	.	238.561	F:7
8b-	how	.	.	.	.	.	.
16b-	sweet	.	.	.	.	.	.
16a-	it	.	.	.	.	.	.
[8b-	is?.	.	.	.	.	.	.
=90	=90	=90	=90	=90	=90	=90	=90
*>Letter>A	*>Letter>A	*>Letter>A	*>Letter>A	*>Letter>A	*>Letter>A	*>Letter>A	*>Letter>A
*>Label>Fadeout	*>Label>Fadeout	*>Label>Fadeout	*>Label>Fadeout	*>Label>Fadeout	*>Label>Fadeout	*>Label>Fadeout	*>Label>Fadeout
8b-]	_	1B-MM	newline	voice	.	239.893	B-:maj7
8r	.	.	.	.	.	.	.
4r	.	.	.	.	.	.	.
8r	.	.	.	.	.	.	.
8b-	how	.	.	.	.	.	.
16b-	sweet	.	.	.	.	.	.
16a-	it	.	.	.	.	.	.
[8b-	is?.	.	.	.	.	.	.
=91	=91	=91	=91	=91	=91	=91	=91
8b-]	_	1E-mm	.	voice	.	242.545	E-:min9
8r	.	.	.	.	.	.	.
4r	.	.	.	.	.	.	.
2r	.	.	.	.	.	.	.
=92	=92	=92	=92	=92	=92	=92	=92
4r	.	1G-MM	.	voice	.	245.197	G-:maj7
8b-	~	.	.	.	.	.	.
8b-	~	.	.	.	.	.	.
8dd-	~	.	.	.	.	.	.
8dd-	~	.	.	.	.	.	.
8ee-	ba-	.	.	.	.	.	.
8b-	-by.	.	.	.	.	.	.
=93	=93	=93	=93	=93	=93	=93	=93
1r	.	2A-Mm	.	voice	.	247.849	A-:11
.	.	2FMm	.	voice	.	249.175	F:7
=94	=94	=94	=94	=94	=94	=94	=94
1r	.	1B-MM	newline	voice	.	250.501	B-:maj7
=95	=95	=95	=95	=95	=95	=95	=95
1r	.	1E-mm	.	voice	.	253.17	E-:min9
=96	=96	=96	=96	=96	=96	=96	=96
1r	.	1G-MM	.	voice	.	255.839	G-:maj7
=97	=97	=97	=97	=97	=97	=97	=97
1r	.	2A-Mm	.	voice	.	258.509	A-:11
.	.	2FMm	.	voice	.	259.843	F:7
r;	.	1r;	.	r	.	261.178	N.C.
r;	.	1r;	.	r	.	266.344	N.C.
*-	*-	*-	*-	*-	*-	*-	*-
!!!BillboardChartDate: 1986/09/13
!!!BillboardPeak: 8
!!!BillboardWeeksOnChart: 22
!!!COC: Anita Baker
!!!ENC: Nathaniel Condit-Schultz
!!!EST: Awating manual error checking and editing.
!!!OTL: Sweet Love
!!!RDF**chordsym: original McGill chord annotation + (implied pitch class set, with bass pitch in first position)
!!!RDF**harmony: **recip + pitch class of root + harmonic quality
!!!RDF**leadinstrument: original McGill primary instrumentation annotation
!!!RDF**phrase: newline = linebreak in original McGill transcription
!!!RDF**timestamp: McGill audio timestamp in seconds
!!!RDT: 2017/01/12/
!!!SampleActualRank: 35
!!!SampleID#: 0837
!!!SampleTargetRank: 37
